dist/img/svg/property__item-icon--11.svg

<svg width="48" height="48" viewBox="0 0 48 48" fill="none" xmlns="http://www.w3.org/2000/svg">
<circle cx="24" cy="24" r="24" fill="#1F2120"/>
<path d="M24 14C18.5 14 14 18.5 14 24C14 29.5 18.5 34 24 34C29.5 34 34 29.5 34 24C34 18.5 29.5 14 24 14ZM22.998 16.0703L22.9961 16.9785L24.9961 16.9824L24.998 16.0703C25.7324 16.163 26.438 16.3494 27.0977 16.6289L26.6406 17.4199L28.3711 18.4219L28.8242 17.6387C29.4022 18.0787 29.917 18.5942 30.3574 19.1719L29.5762 19.625L30.5762 21.3574L31.3711 20.8984C31.6511 21.5585 31.8368 22.2651 31.9297 23H31.0156V25H31.9297C31.8368 25.7349 31.6511 26.4415 31.3711 27.1016L30.5762 26.6426L29.5762 28.375L30.3574 28.8281C29.917 29.4058 29.4022 29.9213 28.8242 30.3613L28.373 29.5801L26.6406 30.5781L27.0977 31.3711C26.438 31.6506 25.7324 31.837 24.998 31.9297L24.9961 31.0176L22.9961 31.0215L22.998 31.9297C22.263 31.8365 21.5567 31.6494 20.8965 31.3691L21.3535 30.5801L19.6211 29.5781L19.1719 30.3574C18.5942 29.917 18.0787 29.4022 17.6387 28.8242L18.418 28.375L17.416 26.6426L16.6289 27.0996C16.3493 26.44 16.1632 25.7343 16.0703 25H16.9785V23H16.0703C16.1632 22.2657 16.3493 21.56 16.6289 20.9004L17.416 21.3574L18.418 19.625L17.6387 19.1758C18.0787 18.5978 18.5942 18.083 19.1719 17.6426L19.6211 18.4219L21.3535 17.4199L20.8965 16.6309C21.5567 16.3506 22.263 16.1634 22.998 16.0703ZM24 20C21.8027 20 20 21.8027 20 24C20 26.1973 21.8027 28 24 28C26.1973 28 28 26.1973 28 24C28 21.8027 26.1973 20 24 20ZM24 22C25.1164 22 26 22.8836 26 24C26 25.1164 25.1164 26 24 26C22.8836 26 22 25.1164 22 24C22 22.8836 22.8836 22 24 22Z" fill="white"/>
</svg>

<svg width="48" height="48" viewBox="0 0 48 48" fill="none" xmlns="http://www.w3.org/2000/svg"><circle cx="24" cy="24" r="24" fill="#1F2120"/><path d="M24 14c-5.5 0-10 4.5-10 10s4.5 10 10 10 10-4.5 10-10-4.5-10-10-10zm-1.002 2.07l-.002.909 2 .003.002-.912c.734.093 1.44.28 2.1.559l-.457.79 1.73 1.003.453-.783c.578.44 1.093.955 1.533 1.533l-.78.453 1 1.732.794-.459c.28.66.466 1.367.559 2.102h-.914v2h.914a7.917 7.917 0 01-.559 2.102l-.795-.46-1 1.733.781.453a8.087 8.087 0 01-1.533 1.533l-.451-.78-1.732.997.457.793c-.66.28-1.366.466-2.1.559l-.002-.912-2 .003.002.909a7.919 7.919 0 01-2.102-.56l.457-.79-1.732-1.002-.45.78a8.087 8.087 0 01-1.532-1.534l.779-.449-1.002-1.732-.787.457a7.919 7.919 0 01-.559-2.1h.909v-2h-.909c.093-.734.28-1.44.559-2.1l.787.457 1.002-1.732-.78-.45a8.087 8.087 0 011.534-1.532l.45.779 1.732-1.002-.457-.79a7.915 7.915 0 012.101-.56zM24 20c-2.197 0-4 1.803-4 4s1.803 4 4 4 4-1.803 4-4-1.803-4-4-4zm0 2c1.116 0 2 .884 2 2s-.884 2-2 2-2-.884-2-2 .884-2 2-2z" fill="#fff"/></svg>
